src/svg/volume-up.svg

<svg version="1.2" baseProfile="tiny" xmlns="http://www.w3.org/2000/svg" width="24" height="24" viewBox="0 0 24 24"><g><path d="M16.706 10.292c-.389-.389-1.023-.391-1.414.002-.39.391-.39 1.023.002 1.414.345.345.535.803.535 1.291 0 .489-.19.948-.536 1.294-.391.39-.391 1.023 0 1.414.195.195.451.293.707.293s.512-.098.707-.293c.724-.723 1.122-1.685 1.122-2.708s-.398-1.984-1.123-2.707zM18.706 8.292c-.391-.389-1.023-.39-1.414.002-.39.391-.39 1.024.002 1.414.879.877 1.363 2.044 1.364 3.287.001 1.246-.484 2.417-1.365 3.298-.391.391-.391 1.023 0 1.414.195.195.451.293.707.293s.512-.098.707-.293c1.259-1.259 1.952-2.933 1.951-4.713-.001-1.777-.694-3.447-1.952-4.702zM20.706 6.292c-.391-.389-1.023-.39-1.414.002-.39.391-.39 1.024.002 1.414 1.412 1.409 2.191 3.285 2.192 5.284.002 2.002-.777 3.885-2.193 5.301-.391.391-.391 1.023 0 1.414.195.195.451.293.707.293s.512-.098.707-.293c1.794-1.794 2.781-4.18 2.779-6.717-.001-2.533-.989-4.912-2.78-6.698zM12.138 5.824c-.449 0-.905.152-1.356.453l-2.673 1.782c-.752.502-2.205.941-3.109.941-1.654 0-3 1.346-3 3v2c0 1.654 1.346 3 3 3 .904 0 2.357.439 3.109.941l2.672 1.781c.451.301.907.453 1.356.453.898.001 1.863-.68 1.863-2.175v-10c0-1.495-.965-2.176-1.862-2.176zm-7.138 9.176c-.552 0-1-.448-1-1v-2c0-.552.448-1 1-1 1.211 0 2.907-.495 4-1.146v6.293c-1.093-.652-2.789-1.147-4-1.147zm7 3l-.006.12-.104-.062-1.89-1.26v-7.596l1.891-1.261.104-.062.005.121v10z"/></g></svg>

<?xml version="1.0" encoding="iso-8859-1"?>
<!-- Generator: Adobe Illustrator 16.2.1, SVG Export Plug-In . SVG Version: 6.00 Build 0)  -->
<svg version="1.2" baseProfile="tiny" xmlns="http://www.w3.org/2000/svg" xmlns:xlink="http://www.w3.org/1999/xlink" x="0px"
	 y="0px" width="24px" height="24px" viewBox="0 0 24 24" xml:space="preserve">
<g id="Layer_1">
	<path d="M16.706,10.292c-0.389-0.389-1.023-0.391-1.414,0.002c-0.39,0.391-0.39,1.023,0.002,1.414
		c0.345,0.345,0.535,0.803,0.535,1.291c0,0.489-0.19,0.948-0.536,1.294c-0.391,0.39-0.391,1.023,0,1.414
		C15.488,15.902,15.744,16,16,16s0.512-0.098,0.707-0.293c0.724-0.723,1.122-1.685,1.122-2.708S17.431,11.015,16.706,10.292z"/>
	<path d="M18.706,8.292c-0.391-0.389-1.023-0.39-1.414,0.002c-0.39,0.391-0.39,1.024,0.002,1.414
		c0.879,0.877,1.363,2.044,1.364,3.287c0.001,1.246-0.484,2.417-1.365,3.298c-0.391,0.391-0.391,1.023,0,1.414
		C17.488,17.902,17.744,18,18,18s0.512-0.098,0.707-0.293c1.259-1.259,1.952-2.933,1.951-4.713
		C20.657,11.217,19.964,9.547,18.706,8.292z"/>
	<path d="M20.706,6.292c-0.391-0.389-1.023-0.39-1.414,0.002c-0.39,0.391-0.39,1.024,0.002,1.414
		c1.412,1.409,2.191,3.285,2.192,5.284c0.002,2.002-0.777,3.885-2.193,5.301c-0.391,0.391-0.391,1.023,0,1.414
		C19.488,19.902,19.744,20,20,20s0.512-0.098,0.707-0.293c1.794-1.794,2.781-4.18,2.779-6.717
		C23.485,10.457,22.497,8.078,20.706,6.292z"/>
	<path d="M12.138,5.824c-0.449,0-0.905,0.152-1.356,0.453L8.109,8.059C7.357,8.561,5.904,9,5,9c-1.654,0-3,1.346-3,3v2
		c0,1.654,1.346,3,3,3c0.904,0,2.357,0.439,3.109,0.941l2.672,1.781c0.451,0.301,0.907,0.453,1.356,0.453
		C13.035,20.176,14,19.495,14,18V8C14,6.505,13.035,5.824,12.138,5.824z M5,15c-0.552,0-1-0.448-1-1v-2c0-0.552,0.448-1,1-1
		c1.211,0,2.907-0.495,4-1.146v6.293C7.907,15.495,6.211,15,5,15z M12,18c0,0.046-0.002,0.086-0.006,0.12
		c-0.03-0.016-0.065-0.036-0.104-0.062L10,16.798V9.202l1.891-1.261c0.038-0.025,0.073-0.046,0.104-0.062
		C11.998,7.914,12,7.954,12,8V18z"/>
</g>
<g id="nyt_x5F_exporter_x5F_info" display="none">
</g>
</svg>
